src/clients/the-kindy-garden/squarespace-updates/assets/icon-email.svg

<svg width="21" height="16" viewBox="0 0 21 16" fill="none" xmlns="http://www.w3.org/2000/svg">
<path d="M18.8 4L10.8 9L2.79999 4V2L10.8 7L18.8 2M18.8 0H2.79999C1.68999 0 0.799988 0.89 0.799988 2V14C0.799988 14.5304 1.0107 15.0391 1.38577 15.4142C1.76085 15.7893 2.26955 16 2.79999 16H18.8C19.3304 16 19.8391 15.7893 20.2142 15.4142C20.5893 15.0391 20.8 14.5304 20.8 14V2C20.8 0.89 19.9 0 18.8 0Z" fill="black"/>
</svg>

<?xml version="1.0" encoding="utf-8"?>
<!-- Generator: Adobe Illustrator 26.3.1, SVG Export Plug-In . SVG Version: 6.00 Build 0)  -->
<svg version="1.1" id="Layer_1" xmlns="http://www.w3.org/2000/svg" xmlns:xlink="http://www.w3.org/1999/xlink" x="0px" y="0px"
	 viewBox="0 0 21 16" style="enable-background:new 0 0 21 16;" xml:space="preserve">
<path d="M18.8,4l-8,5l-8-5V2l8,5l8-5 M18.8,0h-16c-1.1,0-2,0.9-2,2v12c0,0.5,0.2,1,0.6,1.4C1.8,15.8,2.3,16,2.8,16h16
	c0.5,0,1-0.2,1.4-0.6c0.4-0.4,0.6-0.9,0.6-1.4V2C20.8,0.9,19.9,0,18.8,0z"/>
</svg>
